X:1
T:Polska efter Enninger
T:(SvL Skne nr.537, "Kra min mor ni bannar inte mej")
C:John Enninger
R:Vals
Z:Patrik Mnsson, 2008-11-06
O:Hr, Skne
S:Svenska Ltar
B:Omtyckta Sknska Allspelsltar
N:Upptecknad 1875 efter J. Bruun och sjungen av gumman Johannes Ivartsson, Srslv, kyrkoherde I. Johanssons i Ivetofta nmor, fdd 1796. (J.E.) Kopia finns p www.smus-.se, dvs Folkmusikkommissionen och spelmansbcker-Ske 30- IIa:26.
M:3/4
L:1/8
K:A
|: B2 G>A B>c | A>A A>B G>A | B2 G>A B>c | A2 G2 z2 :|
|: E>E F>F G>G | E2 F>F G2 | E2 F>F G>G | E2 F>F G2 |
B2 A>A G>G | B2 A>A G>G | B2 A>A G>G | F2 E2 z2 :|
